X:03
T:Tit for Tat. TJD.03
M:6/8
L:1/8
Q:1/4=120
S:T.J.Dixon MS1, Lincolnshire, 1798
R:Jig
N:Strange barring, half a bar to one side.
N:e changed from crotchet to quaver in bar 8
N:dot added to final crotchet
A:Lincolnshire, Holton le Moor
Z:Vmp.R.Greig2010
K:C
c2c|G2G ABA|G3c2c|def e2d|c3:|!
|:efg|”^dot added”g3efg|
g3 efg|a2gf2e|”^rep’t mark added”d3:|

